X:5324
T:Fletcher's Delight
M:2/4
L:1/16
K:A
eA (3AAA eAce|faec BABc|eA (3AAA eAce|faec B2A2|
eA(3AAA eAce|faec BABc|eA(3AAA eAce|faec B2A2:|
|:Aceg a2ae|faec BAFE|Aceg a2ae|faec B2A2|
Aceg a2ae|faec BAFE|Aceg a2ae|fefg a4:|
